**kern	**kern	**kern	**kern
*staff4	*staff3	*staff2	*staff1
=1-	=1-	=1-	=1-
*clefF4	*clefG2	*clefF4	*clefG2
*k[f#c#g#d#a#]	*k[f#c#g#d#a#]	*k[f#c#g#d#a#]	*k[f#c#g#d#a#]
*B:	*B:	*B:	*B:
*M6/8	*M6/8	*M6/8	*M6/8
2.r	2.r	8FF#/L	8r
.	.	16FF#/L	8r
.	.	16EE#/	.
.	.	16FF#/	8fff#\
.	.	16EE#/JJ	.
.	.	16FF#/LL	4ff#\
.	.	16EE#/	.
.	.	16FF#/	.
.	.	16EE#/	.
.	.	16FF#/	8ffn\
.	.	16EE#/JJ	.
=2	=2	=2	=2
2.r	2.r	16FF#/LL	8fn/L
.	.	16EE#/	.
.	.	16FF#/	8e/
.	.	16EE#/	.
.	.	16FF#/	8d#/J
.	.	16EE#/JJ	.
.	.	16FF#/LL	8dn/L
.	.	16FF##/	.
.	.	16GG#/	8c#/
.	.	16AAn/	.
.	.	16AA#/	8cn/J
.	.	16BB/JJ	.
=3	=3	=3	=3
2.r	2.r	16Cn/LL	4B/
.	.	16BB/J	.
.	.	8D#/	.
.	.	8BB/J	8r
.	.	8FF#/L	8r
.	.	8BB/	8f#/L
.	.	8D#/J	8b/J
=4	=4	=4	=4
!!linebreak:original
2.r	2.r	16Cn/LL	8gn/L
.	.	16BB/J	.
.	.	8D#/	8ccn/
.	.	8BB/J	8g#/J
.	.	8FF#/L	8cc#\L
.	.	8BB/	8gg#\
.	.	8D#/J	8ff#\J
=5	=5	=5	=5
2.r	2.r	8r	8ee#\
.	.	16Gn\LL	8r
.	.	16F#\	.
.	.	16G\	8eee\
.	.	16F#\JJ	.
.	.	16G\LL	8ccc#\
.	.	16F#\	.
.	.	16G\	8r
.	.	16F#\	.
.	.	16G\	8gg#\
.	.	16F#\JJ	.
=6	=6	=6	=6
2.r	2.r	4Gn\	16ee#\LL
.	.	.	16gg#\
.	.	.	16aan\
.	.	.	16bb\
.	.	8G#\ 8dn\	16cccn\
.	.	.	16bb\JJ
.	.	8A#/L	8bb-\L
.	.	16BB-/L	8ggn\
.	.	16AAn/	.
.	.	16BB-/	8ee-\J
.	.	16AA/JJ	.
=7	=7	=7	=7
!!pagebreak:original
2.r	2.r	8GG#/L	8eee\L
.	.	8BB/	8ccc#\
.	.	8E/J	8gg#\J
.	.	8Fn\L	16ggn\LL
.	.	.	16ffn\
.	.	8Gn\	16ee\
.	.	.	16ddn\J
.	.	8An\J	8ccn\J
=8	=8	=8	=8
2.r	2.r	8AAn/L	8ggg#\L
.	.	8Cn/	8ccc#\
.	.	8Fn/J	8gg#\J
.	.	16Gn\LL	8r
.	.	16An\	.
.	.	16A#\	8ccc#\L
.	.	16cn\J	.
.	.	8c#\J	8bb-\J
*	*	*clefG2	*
=9	=9	=9	=9
2.r	4.d#/	8r	16aan\LL
.	.	.	16ggn\
.	.	8fn/L 8an/	16ffn\
.	.	.	16ee\J
.	.	8f/J 8a/	8ddn\J
.	8r	16gn/LL	8ee-\L
.	.	16f/	.
.	4r	16e-/	8gg\
.	.	16dn/J	.
.	.	8cn/J	8bb-\J
=10	=10	=10	=10
!!linebreak:original
2.r	4.A#/	8r	16dddn\LL
.	.	.	16cccn\
.	.	8e-/L 8gn/	16bb-\
.	.	.	16aan\J
.	.	8e-/J 8g/	8ggn\J
.	8r	16en/LL	8aa-\L
.	.	16dn/	.
.	4r	16cn/	8ccc\
.	.	16B/J	.
.	.	8An/J	8eee-\J
=11	=11	=11	=11
2.r	2.r	4A-/	16aaa-\LL
.	.	.	16gggn\
.	.	.	16fffn\
.	.	.	16eee\J
.	.	8ddn\ 8ffn\	8dddn\J
.	.	8r	8ddn\ 8ffn\
.	.	8Dn/L	8r
.	.	8Fn/J	8dd\ 8ff\
*	*	*clefF4	*
=12	=12	=12	=12
2.r	2.r	8E-\L	8ddn\ 8ffn\
.	.	8G-\	8r
.	.	8B-\J	8dd\ 8ff\
.	.	8Bn\L	8dd\ 8ff\
.	.	8dn\	8r
.	.	8fn\J	8dd\ 8ff\
=13	=13	=13	=13
!!linebreak:original
2.r	2.r	8gn\L	8ddn\ 8ffn\
.	.	8fn\	8r
.	.	8a-\J	8dd\ 8ff\
.	.	8r	8dd\L 8ff\
.	.	16C#/LL	8an\
.	.	16BB/	.
.	.	16AAn/	8cc#\J
.	.	16GG#/JJ	.
=14	=14	=14	=14
2.r	2.r	8FF#/	16ggn\LL
.	.	.	16ff#\
.	.	8r	16ee#\
.	.	.	16ff#\
.	.	8F#\ 8An\	16ee#\
.	.	.	16ff#\JJ
.	.	8F#/L 8A/	16gg\LL
.	.	.	16ff#\
.	.	8FF#/	16ee#\
.	.	.	16ff#\
.	.	8GGn/J	16ee#\
.	.	.	16ff#\JJ
=15	=15	=15	=15
2.r	2.r	8GG#/	16ggn\LL
.	.	.	16ff#\
.	.	8r	16ee#\
.	.	.	16ff#\
.	.	8F#\ 8An\	16ee#\
.	.	.	16ff#\JJ
.	.	8F#/L 8A/	16gg\LL
.	.	.	16ff#\
.	.	8GG#/	16ee#\
.	.	.	16ff#\
.	.	8AAn/J	16ee#\
.	.	.	16ff#\JJ
=16	=16	=16	=16
!!pagebreak:original
2.r	2.r	8AA#/	16ggn\LL
.	.	.	16ff#\J
.	.	8r	8gg\
.	.	8Gn\ 8An\	8gn\J
.	.	8BB/	16gg\LL
.	.	.	16ff#\J
.	.	8r	8gg\
.	.	8G\ 8A\	8g\J
=17	=17	=17	=17
2.r	2.r	8Gn\ 8A#\	8ccn/L
.	.	8r	8gn/
.	.	8C#/	8e/J
.	.	8Dn/L	8a#/L
.	.	8GGn/	8g/
.	.	8C#/J	8dn/J
=18	=18	=18	=18
2.r	2.r	8FF#/L	[4e/
.	.	8C#/	.
.	.	8An/J	16e/LL]
.	.	.	16dn/JJ
.	.	8GGn/L	[4fn/
.	.	8C#/	.
.	.	8A/J	16f/LL]
.	.	.	16e/JJ
=19	=19	=19	=19
2.r	2.r	8GG#/L	8d#/L
.	.	8C#/	8f#/
.	.	8B/J	8ff#/J
.	.	8AAn/L	4ffn\
.	.	8Cn/	.
.	.	8cn/J	8ee\
=20	=20	=20	=20
!!linebreak:original
4.AA#/	2.r	8r	8r
.	.	8E\L 8dn\	16bb\LL
.	.	.	16aa#\
.	.	8E\J 8d\	16bb\
.	.	.	16aa#\JJ
8r	.	8r	8bb\L
4r	.	16An\LL	8ee\
.	.	16B\	.
.	.	16B#\	8ee\J
.	.	16d\JJ	.
=21	=21	=21	=21
2.r	2.r	8e-\L	4ee\
.	.	8cn\	.
.	.	8Gn\J	8r
.	.	8Fn\L	8r
.	.	8Dn\	16ee\LL
.	.	.	16ffn\
.	.	8BB-\J	16ee\
.	.	.	16ff\JJ
=22	=22	=22	=22
8r	2.r	4.AA#/	4bb-\
8Dn\L 8F#\	.	.	.
8D\J 8F#\	.	.	8aan\
8r	.	8r	16gg#\LL
.	.	.	16aa\
4r	.	4r	16gg#\
.	.	.	16aa\
.	.	.	16gg#\
.	.	.	16aa\JJ
=23	=23	=23	=23
!!linebreak:original
2.r	2.r	8FF#/L	4eee\
.	.	16FF#/L	.
.	.	16FFn/	.
.	.	16FF#/	8ee\
.	.	16FFn/JJ	.
.	.	16FF#/LL	8r
.	.	16FFn/	.
.	.	16FF#/	8ee\L
.	.	16FFn/	.
.	.	16FF#/	8ccn\J
.	.	16FFn/JJ	.
=24	=24	=24	=24
2.r	2.r	16FF#/LL	8fn/L
.	.	16FFn/	.
.	.	16FF#/	8e/
.	.	16FFn/	.
.	.	16FF#/	8d#/J
.	.	16FFn/JJ	.
.	.	16FF#/LL	8dn/L
.	.	16GGn/	.
.	.	16GG#/	8c#/
.	.	16AAn/	.
.	.	16AA#/	8cn/J
.	.	16BB/JJ	.
=25	=25	=25	=25
!!pagebreak:original
2.r	2.r	16Cn/LL	4B/
.	.	16BB/J	.
.	.	8D#/	.
.	.	8BB/J	8r
.	.	8FF#/L	8r
.	.	8BB/	8f#/L
.	.	8D#/J	8b/J
=26	=26	=26	=26
2.r	2.r	16Cn/LL	8gn/L
.	.	16BB/J	.
.	.	8D#/	8ccn/
.	.	8BB/J	8an/J
.	.	8FF#/L	8dd#\L
.	.	8BB/	8g#\
.	.	8D#/J	8ff#\J
=27	=27	=27	=27
2.r	2.r	16Cn/LL	4ggn\
.	.	16BB/J	.
.	.	8D#/	.
.	.	8BB/J	8ff#\
.	.	8FF#/L	8r
.	.	8BB/	8ff#\L
.	.	8D#/J	8bb\J
=28	=28	=28	=28
2.r	2.r	16Cn/LL	8ggn\L
.	.	16BB/J	.
.	.	8D#/	8cccn\
.	.	8BB/J	8aan\J
.	.	8FF#/L	8ddd#\L
.	.	8BB/	8gg#\
.	.	8D#/J	8fff#\J
=29	=29	=29	=29
!!linebreak:original
*M9/8	*M9/8	*M9/8	*M9/8
8%9r	8%9r	16Cn/LL	8bbb\
.	.	16BB/J	.
.	.	8D#/	8r
.	.	8BB/J	2r
.	.	8FF#/L	.
.	.	8BB/	.
.	.	8D#/J	.
.	.	4r	8Gn/L
.	.	.	8cn/
.	.	8r	8e/J
=30	=30	=30	=30
*M6/8	*M6/8	*M6/8	*M6/8
2.r	4.r	4.r	[2.fn/
.	4.An/ 4.d#/	4.FFn/	.
=31	=31	=31	=31
2.r	4A#/ 4dn/	4AAA#/ 4AA#/	8f/L]
.	.	.	8ddn/
.	2r	2r	8an/J
.	.	.	8ccn\L
.	.	.	8b-\
.	.	.	8gn\J
=32	=32	=32	=32
2.r	2.r	4r	8fn/L
.	.	.	8e/
.	.	8r	8e-/J
.	.	16GGn/LL	8dn/L
.	.	16FF#/J	.
.	.	8EE/	8c#/
.	.	8FF#/J	8cn/J
=33	=33	=33	=33
!!linebreak:original
2.r	2.r	8Cn/L	2.B/
.	.	8BB/	.
.	.	8D#/J	.
.	.	[4.BBB/	.
=34	=34	=34	=34
2.r	4a#/	2.BBB/] 2.BB/ 2.F#/	2.dd#\ 2.bb\
.	2b\	.	.
==	==	==	==
*-	*-	*-	*-
